X:691
T: ALS SANCT KATHARINA EINE HELDIN WAR
N: E2117
O: Europa, Mitteleuropa, Deutschland, Schlesien
R: geistlich, Heiligen - Lied, Legende
M: 4/4
L: 1/8
K: G
D2 | G2GGG2Ac | B2A2G2z
G | A2AAA2Bd | c2B2A2z
d | BGBdc3c | B2dBA2z
D | G2BGA2dc | B2A2G2

